X: 17534
T: Hills Of Tara, The
R: barndance
M: 4/4
K: Gmajor
|:Bc|d2 G2 G2 AB|c2 E2 E2 AG|FGAB cBAc|e2 d2 dcBc|
d2 G2 G3 B|c2 E2 E3 G|F2 G/A/B cAFG|A2 G2 G2:|
|:d/e/f|g2 g2 g2 ag|f2 e2 e2 EG|F2 c2 cB A/B/c|e2 d2 d3 f|
g2 g2 g3 g|f2 e2 e3 G|FGAB cDEF|A2 G2 G2:|

